!!!COM: Ernest Chausson
!!!CNT: Francais
!!!TXO: Francais
!!!OTL: Dans la Fore^t du Charme et de l'Enchantement
!!!LYR: Jean More/as
!!!ENC: Jacob Pegg
!!!YOR: 20 Songs for Voice and Piano, International Music Company, New York City, January, 1952
!!!ODT: 1898/
!!NB: Vocal melody and text only encoded.
**kern	**silbe
*clef G2	*
*k[f#]	*
*M4/8	*
=2	=2
8r	.
{16e	{Sous
16e	vos
16f#	som-
16f#	-bres
16g	che-
16g	-ve-
=3	=3
4a	-lu-
16e	-res
16r	.
24e	pe-
24e	-ti-
24e	-tes
=4	=4
[4g	fe/es.
16g]}	|}
16r	.
{16g	{Vous
16g	chan-
=5	=5
8a	-ta^-
[8a	-tes
16a]	|
16a	sur
16g	mon
16a	che-
=6	=6
4a#	-min
12g	bien
12g	dou-
12g	-ce-
=7	=7
4f#}	-ment}
4r	.
=8	=8
2r	.
=9	=9
8r	.
{16g	{Sous
16g	vos
16a	som-
16a	-bres
16b	che-
16b	-ve-
=10	=10
4a	-lu-
8e	-res,
24e	pe-
24e	-ti-
24e	-tes
=11	=11
[4g	fe/es
16g]}	|}
{16g	{Dans
16g	la
16g	fo-
=12	=12
8.cc	-re^t
16g	du
4g	charme
=13	=13
8g	et
16g	de
16g	l'en-
8e-	-chan-
8e-	-te-
=14	=14
[4d	-ment.
8d]}	|}
8r	.
=15	=15
16r	.
{16d	{Dans
16d	la
16d	fo-
8fn	re^t
8fn	du
=16	=16
4g	charme
8e-	et
16e-	des
16e-	mer-
=17	=17
*M2/8	*
8e-	-veil-
8e-	-leux
=18	=18
*M4/8	*
4d	ri-
8d}	-tes}
8r	.
=19	=19
{8.b-	{gno^-
[16b-	-mes
16b-]	|
16b-	com-
16a	-pa-
16g	-tis-
=20	=20
8.a	-sants,
16a	pen-
16.a-	-dant
32a-	que
16a-	je
16a-	dor-
=21	=21
4g}	-mais}
16r	.
{16g	{De
16g	vo-
16a-	-tre
=22	=22
8.fn	main,
16fn	hon-
8e-	-ne^-
8e-	-tes
=23	=23
8e-	gno^-
8e-	mes
16r	.
8e-	vous
16e-	m'of-
=24	=24
[8d	-fri-
32d]	|
32d	-tes
16d	un
8fn	scep-
8fn	-tre
=25	=25
2a}	d'or}
=26	=26
16r	.
{16b	{he/-
[4.dd	-las!
=27	=27
2dd_	|
=28	=28
8dd]	|
8cc	pen-
[4cc	-dant
=29	=29
8cc]	|
8g	que
8fn	je
8e-	dor-
=30	=30
2g}	-mais}
=31	=31
2r	.
!!2r substituted for the 1r in printed version to avoid 4/8 timing error 
=32	=32
16r	.
{16B	{J'ai
[8B	su
16B]	|
16B	de-
16e	-puis
16e	ce
=33	=33
4fn	temps
8fn	que
16g	c'est
16a	mi-
=34	=34
8.g	-rage
16fn	et
[4fn	leur-
=35	=35
8fn]	|
[8c	-re
8c]}	|}
16r	.
{16c	{Les
=36	=36
16c#	scep-
16d#	-tres
[8e#	d'or
16e#]	|
16e#	et
16f#	les
16g#	chan-
=37	=37
16a	-sons
16a	dans
16g#	la
16f#	fo-
4f#}	-re^t,}
=38	=38
8.r	.
{16b	{Pour-
[4b	-tant
=39	=39
16b]	|
16f#	Comme
16g	un
16a	en-
16a	-fant
16g	cre/-
[8g	-du-
=40	=40
8g]	|
8e-	-le
16r	.
8d	Je
16c	les
=41	=41
4e-	pleu-
4A}	-re}
=42	=42
16r	.
{16d	{Et
16e	je
16fn	vou-
16e	-drais
16d	dor-
[8a	-mir
=43	=43
16a]	|
16d#	en-
[8d#	-cor
16d#]	|
16d#	dans
16e	la
16f#	fo-
=44	=44
4f#}	-re^t,}
8.r	.
{16b	{Qu'im-
=45	=45
[2ee	-por-
=46	=46
8ee]	|
8e	-te
8f#	si
8a	je
=47	-47
4b	sais
8e	que
16f#	c'est
16g	mi-
=48	=48
4.g	-rage
8c	et
=49	=49
[2c	leur-
=50	=50
4c]	|
4B}	-re.}
*-	*-
